dist/svg/battery.svg

<!-- Generated by Trend Micro Style Portal -->
<svg version="1.1" xmlns="http://www.w3.org/2000/svg" width="16" height="16" viewBox="0 0 16 16">
  <title>battery</title>
  <path fill="rgb(34,34,34)" d="M13 11h-11v-6h11zM16 8c0 0 0 0.001 0 0.001 0 0.736-0.398 1.38-0.991 1.726l-0.009 0.005v2.268c0 0.552-0.448 1-1 1v0h-13c-0.552 0-1-0.448-1-1v0-8c0-0.552 0.448-1 1-1v0h13c0.552 0 1 0.448 1 1v0 2.268c0.602 0.352 1 0.995 1 1.732 0 0 0 0.001 0 0.001v-0zM14 4h-13v8h13z"></path>
</svg>

<svg width="16" height="16" viewBox="0 0 16 16" fill="rgb(34, 34, 34)" xmlns="http://www.w3.org/2000/svg"><title>battery</title><path d="M13 11H2V5H13V11ZM16 8V8.001C16 8.737 15.602 9.381 15.009 9.727L15 9.732V12C15 12.552 14.552 13 14 13H1C0.448 13 0 12.552 0 12V4C0 3.448 0.448 3 1 3H14C14.552 3 15 3.448 15 4V6.268C15.602 6.62 16 7.263 16 8ZM14 4H1V12H14V4Z" fill="rgb(34, 34, 34)" fill-opacity="1.00"/></svg>
